images/footer/telegram.svg

<svg width="25" height="25" viewBox="0 0 25 25" fill="none" xmlns="http://www.w3.org/2000/svg">
<path d="M12.5 2.5C9.84844 2.5 7.30312 3.55422 5.42969 5.42891C3.55432 7.30434 2.50052 9.84778 2.5 12.5C2.5 15.1511 3.55469 17.6964 5.42969 19.5711C7.30312 21.4458 9.84844 22.5 12.5 22.5C15.1516 22.5 17.6969 21.4458 19.5703 19.5711C21.4453 17.6964 22.5 15.1511 22.5 12.5C22.5 9.84891 21.4453 7.30359 19.5703 5.42891C17.6969 3.55422 15.1516 2.5 12.5 2.5Z" fill="url(#paint0_linear_1038_4151)"/>
<path d="M7.25608 12.3745C10.2094 11.1045 12.1783 10.2672 13.1628 9.86263C15.9768 8.70748 16.5609 8.50686 16.9423 8.50006C17.0262 8.49873 17.2129 8.5192 17.3348 8.61646C17.4361 8.6985 17.4646 8.80943 17.4788 8.88732C17.4915 8.96513 17.5089 9.14248 17.4947 9.28091C17.3427 10.8622 16.6827 14.6993 16.3472 16.4704C16.2063 17.2198 15.9262 17.471 15.6556 17.4955C15.0668 17.549 14.6205 17.1118 14.0507 16.7432C13.1596 16.1662 12.6563 15.8071 11.7906 15.2442C10.7903 14.5935 11.4392 14.2359 12.009 13.6515C12.1578 13.4985 14.7502 11.1712 14.7993 10.9601C14.8056 10.9337 14.812 10.8353 14.7518 10.7834C14.6933 10.7314 14.6062 10.7492 14.5429 10.7632C14.4527 10.7832 13.0298 11.7126 10.2696 13.5512C9.86598 13.8253 9.50037 13.9588 9.17117 13.9518C8.81031 13.9442 8.11391 13.7499 7.59637 13.584C6.96328 13.3804 6.45839 13.2728 6.50271 12.927C6.52487 12.747 6.77652 12.5628 7.25608 12.3745Z" fill="white"/>
<defs>
<linearGradient id="paint0_linear_1038_4151" x1="1002.5" y1="2.5" x2="1002.5" y2="2002.5" gradientUnits="userSpaceOnUse">
<stop stop-color="#2AABEE"/>
<stop offset="1" stop-color="#229ED9"/>
</linearGradient>
</defs>
</svg>

<svg width="25" height="25" fill="none" xmlns="http://www.w3.org/2000/svg"><path d="M12.5 2.5a9.999 9.999 0 00-7.07 17.071A9.999 9.999 0 1019.57 5.43 9.999 9.999 0 0012.5 2.5z" fill="url(#paint0_linear_1038_4151)"/><path d="M7.256 12.374a496.188 496.188 0 015.907-2.511c2.814-1.156 3.398-1.356 3.78-1.363.083-.001.27.02.392.116.101.082.13.193.144.271.012.078.03.255.016.394-.152 1.581-.812 5.418-1.148 7.19-.14.749-.42 1-.691 1.024-.59.054-1.036-.383-1.605-.752-.891-.577-1.395-.936-2.26-1.499-1-.65-.352-1.008.218-1.592.149-.153 2.741-2.48 2.79-2.692.007-.026.013-.125-.047-.177-.059-.052-.146-.034-.21-.02-.09.02-1.512.95-4.272 2.788-.404.274-.77.408-1.099.4-.36-.007-1.057-.201-1.575-.367-.633-.204-1.138-.311-1.093-.657.022-.18.274-.364.753-.553z" fill="#fff"/><defs><linearGradient id="paint0_linear_1038_4151" x1="1002.5" y1="2.5" x2="1002.5" y2="2002.5" gradientUnits="userSpaceOnUse"><stop stop-color="#2AABEE"/><stop offset="1" stop-color="#229ED9"/></linearGradient></defs></svg>
